assets/svg/solitude/glades-OM1iR6C.svg

<svg height="72" viewBox="0 0 72 72" width="72" xmlns="http://www.w3.org/2000/svg"><path d="m6.05897436 18.0349785h-6.05897436c3.0804-2.8282045 4.92564103-6.174537 4.92564103-6.174537h-3.13846154c3.05128205-2.46537267 4.92564102-5.73032567 4.92564102-5.73032567h-3.09487179c3.13846154-2.5097938 4.88205128-6.13011583 4.88205128-6.13011583s1.7435897 3.62032203 4.8820513 6.13011583h-3.0948718s1.874359 3.264953 4.925641 5.73032567h-3.1384615s1.845241 3.3463325 4.925641 6.174537h-6.5820513v2.9650215" fill="none" stroke="#fff" stroke-linecap="square" stroke-width="1.5" transform="translate(28 26)"/></svg>

<?xml version="1.0" encoding="UTF-8"?>
<svg width="72px" height="72px" viewBox="0 0 72 72" version="1.1" xmlns="http://www.w3.org/2000/svg" xmlns:xlink="http://www.w3.org/1999/xlink">
    <!-- Generator: Sketch 58 (84663) - https://sketch.com -->
    <title>icons alone</title>
    <desc>Created with Sketch.</desc>
    <g id="icons-alone" stroke="none" stroke-width="1" fill="none" fill-rule="evenodd" stroke-linecap="square">
        <g id="Glades" transform="translate(28.000000, 26.000000)" stroke="#FFFFFF" stroke-width="1.5">
            <path d="M6.05897436,18.0349785 L0,18.0349785 C3.0804,15.206774 4.92564103,11.8604415 4.92564103,11.8604415 L1.78717949,11.8604415 C4.83846154,9.39506883 6.71282051,6.13011583 6.71282051,6.13011583 L3.61794872,6.13011583 C6.75641026,3.62032203 8.5,0 8.5,0 C8.5,0 10.2435897,3.62032203 13.3820513,6.13011583 L10.2871795,6.13011583 C10.2871795,6.13011583 12.1615385,9.39506883 15.2128205,11.8604415 L12.074359,11.8604415 C12.074359,11.8604415 13.9196,15.206774 17,18.0349785 L10.4179487,18.0349785 L10.4179487,21" id="tree-copy-2"></path>
        </g>
    </g>
</svg>
